svg/fluentui-system-icons/ic_fluent_star_16_filled.svg

<svg width="16" height="16" viewBox="0 0 16 16" fill="none" xmlns="http://www.w3.org/2000/svg">
<path d="M7.1939 2.1013C7.52403 1.43238 8.47789 1.43238 8.80802 2.1013L10.3291 5.18335L13.7304 5.67758C14.4685 5.78485 14.7633 6.69202 14.2291 7.21271L11.768 9.61175L12.349 12.9993C12.4751 13.7345 11.7034 14.2951 11.0431 13.948L8.00096 12.3487L4.95879 13.948C4.29853 14.2951 3.52684 13.7345 3.65294 12.9993L4.23394 9.61175L1.77277 7.21271C1.23861 6.69203 1.53336 5.78485 2.27156 5.67758L5.67281 5.18335L7.1939 2.1013Z" fill="#212121"/>
</svg>

<svg xmlns="http://www.w3.org/2000/svg" width="16" height="16"><path d="M7.194 2.101a.9.9 0 0 1 1.614 0l1.521 3.082 3.401.495a.9.9 0 0 1 .5 1.535l-2.462 2.399.581 3.387a.9.9 0 0 1-1.306.949l-3.042-1.6-3.042 1.6a.9.9 0 0 1-1.306-.949l.58-3.387-2.46-2.4a.9.9 0 0 1 .499-1.534l3.4-.495 1.522-3.082Z"/></svg>
